X:270
T: Tommy Peoples' B
S: "Music from Ireland 3" (Bulmer & Sharpley)
R: jig
M: 6/8
L: 1/8
K: Bm
AFF dFF|A^GB AFD|AFF dFE|DFA B2d|
AFF dFF|A^GB AFE|F3 FEF|DFA B2d :|
ABc d3|dfa afd|geg fdB|AFA B2d|
ABc dcd|dfa gfe|fge fdB|1 AFA B2d :|2\
AFA B2||
A|Bbb Baa|fge fdA|Bbb Baa|AFA B2A|
Bbb Baa|fge fdB|AFd AFE|DFA B2 :|
